X:39
T:Blanchland Races,aka. RDO.39
T:Timour The Tartar,aka. RDO.39
M:2/4
L:1/16
Q:1/4=100
C:untitled
S:Robert D. Owen MS,Indiana,1826.
R:.Hornpipe
O:Indiana,USA
A:New Harmony
Z:vmp.Chris Partington
K:A
A2(3cBA eA (3cBA |eAaA gAfA|eA (3cBA eAfA|B2c2d2B2|!
A2 ((3cBA) eA ((3cBA)|e2a2g2f2|eaec egec|BABcA4:|!
e2b2e2g2|b2d’2c’2b2|A2 ((3cBA) eA ((3cBA)|e2a2g2f2|!
e2e2a2a2|e2e2a2a2|ecag fedc|BAGF “D.CAPO”EFGE|]

